X: 6681
T: Celtic Thunder
R: reel
M: 4/4
K: Cmajor
|:G,C (3CCC G,CEC|A,C (3CCC A,CFC|G,C (3CCC G,CEC|F3E DCA,C|
G,C (3CCC G,CEC|A,C (3CCC A,CFE|EG,CE FEDC|B,DGF ECA,C:|
|:_E2(3EEE _BEGE|_EF(3FFF cFAF|FG (3GGG dGBG|GA (3AAA fAcA|
AB (3BBB gBdB|Bc (3ccc acga|bagf efgf|edcd c2CD:|

